; G-Code generated by Simplify3D(R) Version 4.1.2
; Jun 5, 2020 at 1:31:25 PM
; Settings Summary
;   processName,Predator
;   applyToModels,Tornado-CR10-Bed-Spacer(6)(2),Tornado-CR10-Bed-Spacer(2)(5)(2),Tornado-CR10-Bed-Spacer(6)(2)(2),Tornado-CR10-Bed-Spacer(2)(5)(2)(2),Tornado-CR10-Bed-Spacer(6)(2)(3),Tornado-CR10-Bed-Spacer(2)(5)(2)(3),Tornado-CR10-Bed-Spacer(6)(2)(4),Tornado-CR10-Bed-Spacer(2)(5)(2)(4)
;   profileName,Anycubic Predator (modified)
;   profileVersion,2020-06-04 23:41:55
;   baseProfile,
;   printMaterial,PLA
;   printQuality,Medium
;   printExtruders,
;   extruderName,Primary Extruder
;   extruderToolheadNumber,0
;   extruderDiameter,0.6
;   extruderAutoWidth,1
;   extruderWidth,0.72
;   extrusionMultiplier,1
;   extruderUseRetract,1
;   extruderRetractionDistance,3
;   extruderExtraRestartDistance,0
;   extruderRetractionZLift,0.2
;   extruderRetractionSpeed,6000
;   extruderUseCoasting,0
;   extruderCoastingDistance,0.2
;   extruderUseWipe,0
;   extruderWipeDistance,5
;   primaryExtruder,0
;   layerHeight,0.2
;   topSolidLayers,0
;   bottomSolidLayers,0
;   perimeterOutlines,20
;   printPerimetersInsideOut,1
;   startPointOption,2
;   startPointOriginX,0
;   startPointOriginY,0
;   sequentialIslands,0
;   spiralVaseMode,0
;   firstLayerHeightPercentage,100
;   firstLayerWidthPercentage,110
;   firstLayerUnderspeed,0.5
;   useRaft,0
;   raftExtruder,0
;   raftTopLayers,3
;   raftBaseLayers,2
;   raftOffset,3
;   raftSeparationDistance,0.14
;   raftTopInfill,100
;   aboveRaftSpeedMultiplier,0.3
;   useSkirt,1
;   skirtExtruder,0
;   skirtLayers,1
;   skirtOutlines,4
;   skirtOffset,4
;   usePrimePillar,0
;   primePillarExtruder,999
;   primePillarWidth,12
;   primePillarLocation,7
;   primePillarSpeedMultiplier,1
;   useOozeShield,0
;   oozeShieldExtruder,999
;   oozeShieldOffset,2
;   oozeShieldOutlines,1
;   oozeShieldSidewallShape,1
;   oozeShieldSidewallAngle,30
;   oozeShieldSpeedMultiplier,1
;   infillExtruder,0
;   internalInfillPattern,Rectilinear
;   externalInfillPattern,Rectilinear
;   infillPercentage,100
;   outlineOverlapPercentage,15
;   infillExtrusionWidthPercentage,100
;   minInfillLength,5
;   infillLayerInterval,1
;   internalInfillAngles,45,-45
;   overlapInternalInfillAngles,0
;   externalInfillAngles,45,-45
;   generateSupport,0
;   supportExtruder,0
;   supportInfillPercentage,30
;   supportExtraInflation,0
;   supportBaseLayers,0
;   denseSupportExtruder,0
;   denseSupportLayers,0
;   denseSupportInfillPercentage,70
;   supportLayerInterval,1
;   supportHorizontalPartOffset,0.3
;   supportUpperSeparationLayers,1
;   supportLowerSeparationLayers,1
;   supportType,0
;   supportGridSpacing,4
;   maxOverhangAngle,45
;   supportAngles,0
;   temperatureName,Primary Extruder,Heated Bed
;   temperatureNumber,0,0
;   temperatureSetpointCount,1,1
;   temperatureSetpointLayers,1,1
;   temperatureSetpointTemperatures,205,60
;   temperatureStabilizeAtStartup,1,1
;   temperatureHeatedBed,0,1
;   fanLayers,1,2
;   fanSpeeds,0,100
;   blipFanToFullPower,0
;   adjustSpeedForCooling,1
;   minSpeedLayerTime,5
;   minCoolingSpeedSlowdown,50
;   increaseFanForCooling,1
;   minFanLayerTime,20
;   maxCoolingFanSpeed,100
;   increaseFanForBridging,1
;   bridgingFanSpeed,100
;   use5D,1
;   relativeEdistances,0
;   allowEaxisZeroing,1
;   independentExtruderAxes,0
;   includeM10123,0
;   stickySupport,1
;   applyToolheadOffsets,0
;   gcodeXoffset,0
;   gcodeYoffset,0
;   gcodeZoffset,0
;   overrideMachineDefinition,1
;   machineTypeOverride,1
;   strokeXoverride,261.6
;   strokeYoverride,261.6
;   strokeZoverride,455
;   originOffsetXoverride,130.8
;   originOffsetYoverride,130.8
;   originOffsetZoverride,0
;   homeXdirOverride,0
;   homeYdirOverride,0
;   homeZdirOverride,1
;   flipXoverride,1
;   flipYoverride,-1
;   flipZoverride,1
;   toolheadOffsets,0,0|0,0|0,0|0,0|0,0|0,0
;   overrideFirmwareConfiguration,1
;   firmwareTypeOverride,RepRap (Marlin/Repetier/Sprinter)
;   GPXconfigOverride,r2
;   baudRateOverride,115200
;   overridePrinterModels,1
;   printerModelsOverride
;   startingGcode,G28 ; home all axes
;   layerChangeGcode,
;   retractionGcode,
;   toolChangeGcode,
;   endingGcode,M104 S0 ; turn off extruder,M140 S0 ; turn off bed,G28 ; home all axes,M106 S0,; M84 ; disable motors
;   exportFileFormat,gcode
;   celebration,0
;   celebrationSong,Random Song
;   postProcessing,
;   defaultSpeed,6000
;   outlineUnderspeed,0.6
;   solidInfillUnderspeed,0.8
;   supportUnderspeed,0.8
;   rapidXYspeed,6000
;   rapidZspeed,1002
;   minBridgingArea,50
;   bridgingExtraInflation,0
;   bridgingExtrusionMultiplier,1
;   bridgingSpeedMultiplier,1
;   useFixedBridgingAngle,0
;   fixedBridgingAngle,0
;   applyBridgingToPerimeters,0
;   filamentDiameters,1.75|1.75|1.75|1.75|1.75|1.75
;   filamentPricesPerKg,20|46|46|46|46|46
;   filamentDensities,1.25|1.25|1.25|1.25|1.25|1.25
;   useMinPrintHeight,0
;   minPrintHeight,0
;   useMaxPrintHeight,0
;   maxPrintHeight,0
;   useDiaphragm,0
;   diaphragmLayerInterval,20
;   robustSlicing,1
;   mergeAllIntoSolid,0
;   onlyRetractWhenCrossingOutline,1
;   retractBetweenLayers,1
;   useRetractionMinTravel,0
;   retractionMinTravel,3
;   retractWhileWiping,0
;   onlyWipeOutlines,1
;   avoidCrossingOutline,0
;   maxMovementDetourFactor,3
;   toolChangeRetractionDistance,12
;   toolChangeExtraRestartDistance,-0.5
;   toolChangeRetractionSpeed,600
;   externalThinWallType,1
;   internalThinWallType,1
;   thinWallAllowedOverlapPercentage,10
;   singleExtrusionMinLength,1
;   singleExtrusionMinPrintingWidthPercentage,50
;   singleExtrusionMaxPrintingWidthPercentage,200
;   singleExtrusionEndpointExtension,0.2
;   horizontalSizeCompensation,0
G90
M82
M106 S0
M140 S60
M190 S60
M104 S205 T0
M109 S205 T0
G28 ; home all axes
; process Predator
; layer 1, Z = 0.200
T0
G92 E0.0000
G1 E-3.0000 F6000
; feature skirt
; tool H0.200 W0.792
G1 Z0.200 F1002
G1 X20.884 Y-0.003 F6000
G1 E0.0000 F6000
G92 E0.0000
G1 X21.524 Y0.666 E0.0610 F3000
G1 X21.724 Y0.895 E0.0810
G1 X22.365 Y1.699 E0.1487
G1 X22.549 Y1.954 E0.1694
G1 X23.151 Y2.872 E0.2417
G1 X23.339 Y3.196 E0.2664
G1 X23.979 Y4.458 E0.3596
G1 X24.130 Y4.801 E0.3842
G1 X24.502 Y5.790 E0.4539
G1 X24.596 Y6.080 E0.4739
G1 X24.878 Y7.101 E0.5437
G1 X24.958 Y7.473 E0.5687
G1 X25.186 Y8.911 E0.6646
G1 X25.224 Y9.289 E0.6896
G1 X25.272 Y10.348 E0.7594
G1 X25.272 Y10.652 E0.7794
G1 X25.224 Y11.711 E0.8492
G1 X25.186 Y12.089 E0.8743
G1 X24.958 Y13.527 E0.9702
G1 X24.878 Y13.898 E0.9952
G1 X24.596 Y14.920 E1.0650
G1 X24.502 Y15.209 E1.0850
G1 X24.143 Y16.166 E1.1523
G1 X24.023 Y16.445 E1.1723
G1 X23.580 Y17.366 E1.2396
G1 X23.436 Y17.633 E1.2596
G1 X22.912 Y18.511 E1.3269
G1 X22.744 Y18.764 E1.3469
G1 X22.144 Y19.591 E1.4142
G1 X21.954 Y19.829 E1.4342
G1 X21.257 Y20.627 E1.5040
G1 X20.991 Y20.898 E1.5291
G1 X19.916 Y21.881 E1.6250
G1 X19.622 Y22.121 E1.6500
G1 X18.764 Y22.744 E1.7198
G1 X18.511 Y22.912 E1.7398
G1 X17.634 Y23.436 E1.8071
G1 X17.366 Y23.580 E1.8271
G1 X16.411 Y24.040 E1.8969
G1 X16.060 Y24.185 E1.9219
G1 X14.685 Y24.666 E2.0178
G1 X14.320 Y24.771 E2.0429
G1 X13.287 Y25.007 E2.1127
G1 X12.988 Y25.061 E2.1327
G1 X11.975 Y25.199 E2.2000
G1 X11.673 Y25.226 E2.2200
G1 X10.652 Y25.272 E2.2873
G1 X10.348 Y25.272 E2.3073
G1 X9.327 Y25.226 E2.3746
G1 X9.024 Y25.199 E2.3946
G1 X8.012 Y25.061 E2.4619
G1 X7.713 Y25.007 E2.4819
G1 X6.711 Y24.779 E2.5496
G1 X6.408 Y24.694 E2.5703
G1 X5.364 Y24.352 E2.6426
G1 X5.016 Y24.215 E2.6673
G1 X3.728 Y23.628 E2.7605
G1 X3.396 Y23.454 E2.7851
G1 X2.489 Y22.912 E2.8548
G1 X2.235 Y22.744 E2.8748
G1 X1.409 Y22.144 E2.9421
G1 X1.171 Y21.954 E2.9621
G1 X0.401 Y21.282 E3.0294
G1 X0.182 Y21.072 E3.0494
G1 X0.004 Y20.886 E3.0663
G1 X-0.008 Y20.898 E3.0675
G1 X-1.083 Y21.881 E3.1634
G1 X-1.378 Y22.121 E3.1884
G1 X-2.235 Y22.744 E3.2582
G1 X-2.489 Y22.912 E3.2782
G1 X-3.366 Y23.436 E3.3455
G1 X-3.634 Y23.580 E3.3656
G1 X-4.589 Y24.040 E3.4354
G1 X-4.940 Y24.185 E3.4604
G1 X-6.314 Y24.666 E3.5563
G1 X-6.679 Y24.771 E3.5813
G1 X-7.713 Y25.007 E3.6511
G1 X-8.012 Y25.061 E3.6711
G1 X-9.024 Y25.199 E3.7384
G1 X-9.327 Y25.226 E3.7584
G1 X-10.348 Y25.272 E3.8257
G1 X-10.652 Y25.272 E3.8457
G1 X-11.673 Y25.226 E3.9130
G1 X-11.975 Y25.199 E3.9330
G1 X-12.988 Y25.061 E4.0003
G1 X-13.287 Y25.007 E4.0204
G1 X-14.288 Y24.779 E4.0880
G1 X-14.592 Y24.694 E4.1087
G1 X-15.635 Y24.352 E4.1811
G1 X-15.984 Y24.215 E4.2057
G1 X-17.271 Y23.628 E4.2989
G1 X-17.603 Y23.454 E4.3236
G1 X-18.511 Y22.912 E4.3932
G1 X-18.764 Y22.744 E4.4132
G1 X-19.591 Y22.144 E4.4805
G1 X-19.829 Y21.954 E4.5005
G1 X-20.598 Y21.282 E4.5678
G1 X-20.818 Y21.072 E4.5878
G1 X-21.550 Y20.306 E4.6576
G1 X-21.797 Y20.017 E4.6827
G1 X-22.679 Y18.858 E4.7786
G1 X-22.892 Y18.543 E4.8036
G1 X-23.436 Y17.634 E4.8734
G1 X-23.580 Y17.366 E4.8934
G1 X-24.023 Y16.445 E4.9607
G1 X-24.143 Y16.166 E4.9807
G1 X-24.502 Y15.209 E5.0480
G1 X-24.596 Y14.920 E5.0680
G1 X-24.867 Y13.935 E5.1353
G1 X-24.935 Y13.639 E5.1553
G1 X-25.124 Y12.596 E5.2251
G1 X-25.171 Y12.219 E5.2501
G1 X-25.272 Y10.728 E5.3486
G1 X-25.272 Y10.272 E5.3786
G1 X-25.171 Y8.781 E5.4770
G1 X-25.124 Y8.404 E5.5020
G1 X-24.935 Y7.361 E5.5718
G1 X-24.867 Y7.065 E5.5918
G1 X-24.596 Y6.080 E5.6591
G1 X-24.502 Y5.791 E5.6791
G1 X-24.143 Y4.834 E5.7464
G1 X-24.023 Y4.554 E5.7665
G1 X-23.580 Y3.634 E5.8337
G1 X-23.436 Y3.366 E5.8538
G1 X-22.912 Y2.489 E5.9210
G1 X-22.744 Y2.235 E5.9411
G1 X-22.140 Y1.404 E6.0087
G1 X-21.944 Y1.158 E6.0294
G1 X-21.219 Y0.334 E6.1018
G1 X-20.956 Y0.067 E6.1264
G1 X-20.885 Y0.002 E6.1328
G1 X-21.550 Y-0.694 E6.1961
G1 X-21.797 Y-0.983 E6.2212
G1 X-22.679 Y-2.142 E6.3171
G1 X-22.892 Y-2.456 E6.3421
G1 X-23.436 Y-3.366 E6.4119
G1 X-23.580 Y-3.634 E6.4319
G1 X-24.023 Y-4.554 E6.4992
G1 X-24.143 Y-4.834 E6.5192
G1 X-24.502 Y-5.791 E6.5865
G1 X-24.596 Y-6.080 E6.6065
G1 X-24.867 Y-7.065 E6.6738
G1 X-24.935 Y-7.361 E6.6938
G1 X-25.124 Y-8.404 E6.7636
G1 X-25.171 Y-8.781 E6.7887
G1 X-25.272 Y-10.272 E6.8871
G1 X-25.272 Y-10.728 E6.9171
G1 X-25.171 Y-12.219 E7.0155
G1 X-25.124 Y-12.596 E7.0405
G1 X-24.935 Y-13.639 E7.1103
G1 X-24.867 Y-13.935 E7.1303
G1 X-24.596 Y-14.920 E7.1976
G1 X-24.502 Y-15.209 E7.2176
G1 X-24.143 Y-16.166 E7.2849
G1 X-24.023 Y-16.445 E7.3050
G1 X-23.580 Y-17.366 E7.3723
G1 X-23.436 Y-17.633 E7.3923
G1 X-22.912 Y-18.511 E7.4596
G1 X-22.744 Y-18.764 E7.4796
G1 X-22.140 Y-19.596 E7.5472
G1 X-21.944 Y-19.841 E7.5680
G1 X-21.218 Y-20.666 E7.6403
G1 X-20.956 Y-20.933 E7.6649
G1 X-19.910 Y-21.886 E7.7581
G1 X-19.620 Y-22.123 E7.7828
G1 X-18.764 Y-22.744 E7.8524
G1 X-18.511 Y-22.912 E7.8725
G1 X-17.634 Y-23.436 E7.9397
G1 X-17.366 Y-23.580 E7.9598
G1 X-16.445 Y-24.023 E8.0270
G1 X-16.166 Y-24.143 E8.0471
G1 X-15.204 Y-24.504 E8.1147
G1 X-14.905 Y-24.600 E8.1354
G1 X-13.845 Y-24.889 E8.2078
G1 X-13.479 Y-24.967 E8.2324
G1 X-12.081 Y-25.187 E8.3256
G1 X-11.708 Y-25.224 E8.3503
G1 X-10.652 Y-25.272 E8.4199
G1 X-10.348 Y-25.272 E8.4399
G1 X-9.327 Y-25.226 E8.5072
G1 X-9.024 Y-25.199 E8.5272
G1 X-7.974 Y-25.056 E8.5970
G1 X-7.601 Y-24.984 E8.6221
G1 X-6.189 Y-24.628 E8.7180
G1 X-5.826 Y-24.515 E8.7430
G1 X-4.834 Y-24.143 E8.8128
G1 X-4.554 Y-24.023 E8.8328
G1 X-3.634 Y-23.580 E8.9001
G1 X-3.366 Y-23.436 E8.9201
G1 X-2.489 Y-22.912 E8.9874
G1 X-2.235 Y-22.744 E9.0074
G1 X-1.409 Y-22.144 E9.0747
G1 X-1.171 Y-21.954 E9.0947
G1 X-0.401 Y-21.282 E9.1620
G1 X-0.182 Y-21.072 E9.1820
G1 X-0.003 Y-20.885 E9.1990
G1 X0.043 Y-20.933 E9.2034
G1 X1.089 Y-21.886 E9.2966
G1 X1.380 Y-22.123 E9.3213
G1 X2.235 Y-22.744 E9.3909
G1 X2.489 Y-22.912 E9.4109
G1 X3.366 Y-23.436 E9.4782
G1 X3.634 Y-23.580 E9.4982
G1 X4.554 Y-24.023 E9.5655
G1 X4.834 Y-24.143 E9.5856
G1 X5.796 Y-24.504 E9.6532
G1 X6.095 Y-24.600 E9.6739
G1 X7.155 Y-24.889 E9.7463
G1 X7.521 Y-24.967 E9.7709
G1 X8.919 Y-25.187 E9.8641
G1 X9.292 Y-25.224 E9.8888
G1 X10.348 Y-25.272 E9.9584
G1 X10.652 Y-25.272 E9.9784
G1 X11.673 Y-25.226 E10.0457
G1 X11.975 Y-25.199 E10.0657
G1 X13.026 Y-25.056 E10.1355
G1 X13.399 Y-24.984 E10.1606
G1 X14.811 Y-24.628 E10.2565
G1 X15.173 Y-24.515 E10.2815
G1 X16.166 Y-24.143 E10.3513
G1 X16.445 Y-24.023 E10.3713
G1 X17.366 Y-23.580 E10.4386
G1 X17.634 Y-23.436 E10.4586
G1 X18.511 Y-22.912 E10.5259
G1 X18.764 Y-22.744 E10.5459
G1 X19.591 Y-22.144 E10.6132
G1 X19.829 Y-21.954 E10.6332
G1 X20.598 Y-21.282 E10.7005
G1 X20.818 Y-21.072 E10.7205
G1 X21.524 Y-20.333 E10.7878
G1 X21.724 Y-20.104 E10.8078
G1 X22.365 Y-19.301 E10.8755
G1 X22.549 Y-19.046 E10.8962
G1 X23.151 Y-18.128 E10.9685
G1 X23.339 Y-17.804 E10.9932
G1 X23.979 Y-16.542 E11.0864
G1 X24.130 Y-16.199 E11.1111
G1 X24.502 Y-15.209 E11.1807
G1 X24.596 Y-14.920 E11.2007
G1 X24.878 Y-13.898 E11.2705
G1 X24.958 Y-13.527 E11.2955
G1 X25.186 Y-12.089 E11.3914
G1 X25.224 Y-11.711 E11.4165
G1 X25.272 Y-10.652 E11.4862
G1 X25.272 Y-10.348 E11.5063
G1 X25.224 Y-9.289 E11.5761
G1 X25.186 Y-8.911 E11.6011
G1 X24.958 Y-7.473 E11.6970
G1 X24.878 Y-7.101 E11.7220
G1 X24.596 Y-6.080 E11.7918
G1 X24.502 Y-5.790 E11.8118
G1 X24.143 Y-4.834 E11.8791
G1 X24.023 Y-4.554 E11.8991
G1 X23.580 Y-3.634 E11.9664
G1 X23.436 Y-3.366 E11.9865
G1 X22.912 Y-2.489 E12.0537
G1 X22.744 Y-2.235 E12.0738
G1 X22.144 Y-1.409 E12.1410
G1 X21.954 Y-1.171 E12.1611
G1 X21.257 Y-0.373 E12.2309
G1 X20.991 Y-0.101 E12.2559
G1 X20.884 Y-0.003 E12.2655
G92 E0.0000
G1 E-3.0000 F6000
G1 Z0.400 F1002
G1 X20.258 Y0.488 F6000
G1 Z0.200 F1002
G1 E0.0000 F6000
G92 E0.0000
G1 X20.939 Y1.201 E0.0650 F3000
G1 X21.116 Y1.403 E0.0826
G1 X21.734 Y2.178 E0.1479
G1 X21.897 Y2.403 E0.1662
G1 X22.477 Y3.288 E0.2359
G1 X22.643 Y3.574 E0.2577
G1 X23.263 Y4.797 E0.3480
G1 X23.396 Y5.100 E0.3697
G1 X23.754 Y6.052 E0.4368
G1 X23.837 Y6.307 E0.4544
G1 X24.108 Y7.290 E0.5216
G1 X24.179 Y7.619 E0.5437
G1 X24.400 Y9.013 E0.6367
G1 X24.434 Y9.347 E0.6588
G1 X24.480 Y10.366 E0.7259
G1 X24.480 Y10.634 E0.7436
G1 X24.434 Y11.653 E0.8108
G1 X24.400 Y11.987 E0.8329
G1 X24.179 Y13.381 E0.9258
G1 X24.108 Y13.709 E0.9479
G1 X23.837 Y14.692 E1.0151
G1 X23.754 Y14.947 E1.0328
G1 X23.407 Y15.871 E1.0977
G1 X23.302 Y16.118 E1.1154
G1 X22.874 Y17.006 E1.1803
G1 X22.747 Y17.243 E1.1980
G1 X22.241 Y18.089 E1.2630
G1 X22.093 Y18.313 E1.2807
G1 X21.513 Y19.111 E1.3456
G1 X21.346 Y19.321 E1.3633
G1 X20.675 Y20.089 E1.4304
G1 X20.440 Y20.329 E1.4525
G1 X19.398 Y21.281 E1.5455
G1 X19.138 Y21.494 E1.5676
G1 X18.313 Y22.093 E1.6348
G1 X18.089 Y22.241 E1.6525
G1 X17.243 Y22.747 E1.7174
G1 X17.006 Y22.874 E1.7351
G1 X16.087 Y23.316 E1.8022
G1 X15.777 Y23.445 E1.8243
G1 X14.445 Y23.911 E1.9173
G1 X14.122 Y24.004 E1.9394
G1 X13.128 Y24.231 E2.0066
G1 X12.864 Y24.279 E2.0242
G1 X11.887 Y24.411 E2.0892
G1 X11.619 Y24.435 E2.1069
G1 X10.634 Y24.480 E2.1718
G1 X10.366 Y24.480 E2.1895
G1 X9.380 Y24.435 E2.2545
G1 X9.113 Y24.411 E2.2721
G1 X8.136 Y24.279 E2.3371
G1 X7.872 Y24.231 E2.3548
G1 X6.905 Y24.010 E2.4200
G1 X6.638 Y23.936 E2.4383
G1 X5.632 Y23.606 E2.5080
G1 X5.324 Y23.486 E2.5298
G1 X4.077 Y22.917 E2.6201
G1 X3.784 Y22.763 E2.6419
G1 X2.910 Y22.241 E2.7089
G1 X2.686 Y22.093 E2.7265
G1 X1.888 Y21.513 E2.7915
G1 X1.679 Y21.346 E2.8092
G1 X0.936 Y20.697 E2.8741
G1 X0.742 Y20.512 E2.8918
G1 X0.037 Y19.774 E2.9590
G1 X-0.006 Y19.724 E2.9633
G1 X-0.325 Y20.089 E2.9952
G1 X-0.559 Y20.329 E3.0173
G1 X-1.601 Y21.281 E3.1103
G1 X-1.861 Y21.494 E3.1324
G1 X-2.686 Y22.093 E3.1996
G1 X-2.910 Y22.241 E3.2172
G1 X-3.757 Y22.747 E3.2822
G1 X-3.993 Y22.874 E3.2999
G1 X-4.912 Y23.316 E3.3670
G1 X-5.222 Y23.445 E3.3891
G1 X-6.555 Y23.911 E3.4821
G1 X-6.877 Y24.004 E3.5042
G1 X-7.872 Y24.231 E3.5714
G1 X-8.136 Y24.279 E3.5890
G1 X-9.113 Y24.411 E3.6540
G1 X-9.380 Y24.435 E3.6717
G1 X-10.366 Y24.480 E3.7366
G1 X-10.634 Y24.480 E3.7543
G1 X-11.619 Y24.435 E3.8192
G1 X-11.887 Y24.411 E3.8369
G1 X-12.864 Y24.279 E3.9019
G1 X-13.128 Y24.231 E3.9195
G1 X-14.094 Y24.010 E3.9848
G1 X-14.362 Y23.936 E4.0031
G1 X-15.367 Y23.606 E4.0728
G1 X-15.675 Y23.486 E4.0946
G1 X-16.923 Y22.917 E4.1849
G1 X-17.216 Y22.763 E4.2067
G1 X-18.089 Y22.241 E4.2737
G1 X-18.313 Y22.093 E4.2913
G1 X-19.111 Y21.513 E4.3563
G1 X-19.321 Y21.346 E4.3740
