; G-Code generated by Simplify3D(R) Version 4.1.2
; Jun 5, 2020 at 12:58:10 PM
; Settings Summary
;   processName,Predator
;   applyToModels,frame,lid,frame(2),lid(2)
;   profileName,Anycubic Predator (modified)
;   profileVersion,2020-06-04 23:41:55
;   baseProfile,
;   printMaterial,PLA
;   printQuality,Medium
;   printExtruders,
;   extruderName,Primary Extruder
;   extruderToolheadNumber,0
;   extruderDiameter,0.6
;   extruderAutoWidth,1
;   extruderWidth,0.72
;   extrusionMultiplier,0.9
;   extruderUseRetract,1
;   extruderRetractionDistance,3
;   extruderExtraRestartDistance,0
;   extruderRetractionZLift,0.2
;   extruderRetractionSpeed,6000
;   extruderUseCoasting,0
;   extruderCoastingDistance,0.2
;   extruderUseWipe,0
;   extruderWipeDistance,5
;   primaryExtruder,0
;   layerHeight,0.3
;   topSolidLayers,4
;   bottomSolidLayers,4
;   perimeterOutlines,2
;   printPerimetersInsideOut,1
;   startPointOption,2
;   startPointOriginX,0
;   startPointOriginY,0
;   sequentialIslands,0
;   spiralVaseMode,0
;   firstLayerHeightPercentage,100
;   firstLayerWidthPercentage,100
;   firstLayerUnderspeed,0.5
;   useRaft,0
;   raftExtruder,0
;   raftTopLayers,3
;   raftBaseLayers,2
;   raftOffset,3
;   raftSeparationDistance,0.14
;   raftTopInfill,100
;   aboveRaftSpeedMultiplier,0.3
;   useSkirt,1
;   skirtExtruder,0
;   skirtLayers,1
;   skirtOutlines,4
;   skirtOffset,4
;   usePrimePillar,0
;   primePillarExtruder,999
;   primePillarWidth,12
;   primePillarLocation,7
;   primePillarSpeedMultiplier,1
;   useOozeShield,0
;   oozeShieldExtruder,999
;   oozeShieldOffset,2
;   oozeShieldOutlines,1
;   oozeShieldSidewallShape,1
;   oozeShieldSidewallAngle,30
;   oozeShieldSpeedMultiplier,1
;   infillExtruder,0
;   internalInfillPattern,Rectilinear
;   externalInfillPattern,Rectilinear
;   infillPercentage,20
;   outlineOverlapPercentage,15
;   infillExtrusionWidthPercentage,100
;   minInfillLength,5
;   infillLayerInterval,1
;   internalInfillAngles,45,-45
;   overlapInternalInfillAngles,0
;   externalInfillAngles,45,-45
;   generateSupport,0
;   supportExtruder,0
;   supportInfillPercentage,30
;   supportExtraInflation,0
;   supportBaseLayers,0
;   denseSupportExtruder,0
;   denseSupportLayers,0
;   denseSupportInfillPercentage,70
;   supportLayerInterval,1
;   supportHorizontalPartOffset,0.3
;   supportUpperSeparationLayers,1
;   supportLowerSeparationLayers,1
;   supportType,0
;   supportGridSpacing,4
;   maxOverhangAngle,45
;   supportAngles,0
;   temperatureName,Primary Extruder,Heated Bed
;   temperatureNumber,0,0
;   temperatureSetpointCount,1,1
;   temperatureSetpointLayers,1,1
;   temperatureSetpointTemperatures,205,60
;   temperatureStabilizeAtStartup,1,1
;   temperatureHeatedBed,0,1
;   fanLayers,1,2
;   fanSpeeds,0,100
;   blipFanToFullPower,0
;   adjustSpeedForCooling,1
;   minSpeedLayerTime,5
;   minCoolingSpeedSlowdown,50
;   increaseFanForCooling,1
;   minFanLayerTime,20
;   maxCoolingFanSpeed,100
;   increaseFanForBridging,1
;   bridgingFanSpeed,100
;   use5D,1
;   relativeEdistances,0
;   allowEaxisZeroing,1
;   independentExtruderAxes,0
;   includeM10123,0
;   stickySupport,1
;   applyToolheadOffsets,0
;   gcodeXoffset,0
;   gcodeYoffset,0
;   gcodeZoffset,0
;   overrideMachineDefinition,1
;   machineTypeOverride,1
;   strokeXoverride,261.6
;   strokeYoverride,261.6
;   strokeZoverride,455
;   originOffsetXoverride,130.8
;   originOffsetYoverride,130.8
;   originOffsetZoverride,0
;   homeXdirOverride,0
;   homeYdirOverride,0
;   homeZdirOverride,1
;   flipXoverride,1
;   flipYoverride,-1
;   flipZoverride,1
;   toolheadOffsets,0,0|0,0|0,0|0,0|0,0|0,0
;   overrideFirmwareConfiguration,1
;   firmwareTypeOverride,RepRap (Marlin/Repetier/Sprinter)
;   GPXconfigOverride,r2
;   baudRateOverride,115200
;   overridePrinterModels,1
;   printerModelsOverride
;   startingGcode,G28 ; home all axes
;   layerChangeGcode,
;   retractionGcode,
;   toolChangeGcode,
;   endingGcode,M104 S0 ; turn off extruder,M140 S0 ; turn off bed,G28 ; home all axes,M106 S0,; M84 ; disable motors
;   exportFileFormat,gcode
;   celebration,0
;   celebrationSong,Random Song
;   postProcessing,
;   defaultSpeed,6000
;   outlineUnderspeed,0.6
;   solidInfillUnderspeed,0.8
;   supportUnderspeed,0.8
;   rapidXYspeed,6000
;   rapidZspeed,1002
;   minBridgingArea,50
;   bridgingExtraInflation,0
;   bridgingExtrusionMultiplier,1
;   bridgingSpeedMultiplier,1
;   useFixedBridgingAngle,0
;   fixedBridgingAngle,0
;   applyBridgingToPerimeters,0
;   filamentDiameters,1.75|1.75|1.75|1.75|1.75|1.75
;   filamentPricesPerKg,20|46|46|46|46|46
;   filamentDensities,1.25|1.25|1.25|1.25|1.25|1.25
;   useMinPrintHeight,0
;   minPrintHeight,0
;   useMaxPrintHeight,0
;   maxPrintHeight,0
;   useDiaphragm,0
;   diaphragmLayerInterval,20
;   robustSlicing,1
;   mergeAllIntoSolid,0
;   onlyRetractWhenCrossingOutline,1
;   retractBetweenLayers,1
;   useRetractionMinTravel,0
;   retractionMinTravel,3
;   retractWhileWiping,0
;   onlyWipeOutlines,1
;   avoidCrossingOutline,0
;   maxMovementDetourFactor,3
;   toolChangeRetractionDistance,12
;   toolChangeExtraRestartDistance,-0.5
;   toolChangeRetractionSpeed,600
;   externalThinWallType,1
;   internalThinWallType,1
;   thinWallAllowedOverlapPercentage,10
;   singleExtrusionMinLength,1
;   singleExtrusionMinPrintingWidthPercentage,50
;   singleExtrusionMaxPrintingWidthPercentage,200
;   singleExtrusionEndpointExtension,0.2
;   horizontalSizeCompensation,0
G90
M82
M106 S0
M140 S60
M190 S60
M104 S205 T0
M109 S205 T0
G28 ; home all axes
; process Predator
; layer 1, Z = 0.300
T0
G92 E0.0000
G1 E-3.0000 F6000
; feature skirt
; tool H0.300 W0.720
G1 Z0.300 F1002
G1 X36.365 Y14.571 F6000
G1 E0.0000 F6000
G92 E0.0000
G1 X36.518 Y14.994 E0.0364 F3000
G1 X36.656 Y15.501 E0.0788
G1 X36.932 Y16.959 E0.1988
G1 X36.988 Y17.587 E0.2497
G1 X36.979 Y18.966 E0.3612
G1 X36.961 Y19.280 E0.3866
G1 X33.916 Y48.643 E2.7726
G1 X33.856 Y49.016 E2.8031
G1 X33.586 Y50.226 E2.9033
G1 X33.391 Y50.825 E2.9542
G1 X32.967 Y51.794 E3.0397
G1 X32.730 Y52.239 E3.0804
G1 X32.196 Y53.078 E3.1608
G1 X31.893 Y53.481 E3.2015
G1 X31.195 Y54.275 E3.2870
G1 X30.735 Y54.706 E3.3379
G1 X29.653 Y55.540 E3.4483
G1 X29.120 Y55.874 E3.4992
G1 X28.173 Y56.347 E3.5847
G1 X27.706 Y56.537 E3.6254
G1 X26.759 Y56.839 E3.7058
G1 X26.268 Y56.955 E3.7466
G1 X25.286 Y57.108 E3.8269
G1 X24.785 Y57.147 E3.8675
G1 X2.781 Y57.157 E5.6460
G1 X2.402 Y57.135 E5.6766
G1 X1.170 Y56.991 E5.7768
G1 X0.555 Y56.859 E5.8277
G1 X-0.513 Y56.518 E5.9183
G1 X-1.092 Y56.269 E5.9693
G1 X-2.289 Y55.612 E6.0796
G1 X-2.810 Y55.257 E6.1305
G1 X-3.670 Y54.539 E6.2211
G1 X-4.113 Y54.091 E6.2720
G1 X-4.975 Y53.032 E6.3824
G1 X-5.323 Y52.507 E6.4333
G1 X-5.727 Y51.748 E6.5028
G1 X-5.747 Y51.794 E6.5068
G1 X-5.984 Y52.239 E6.5475
G1 X-6.518 Y53.078 E6.6280
G1 X-6.820 Y53.481 E6.6687
G1 X-7.519 Y54.275 E6.7542
G1 X-7.979 Y54.706 E6.8051
G1 X-9.060 Y55.540 E6.9155
G1 X-9.594 Y55.874 E6.9664
G1 X-10.540 Y56.347 E7.0519
G1 X-11.007 Y56.537 E7.0926
G1 X-11.955 Y56.839 E7.1730
G1 X-12.445 Y56.955 E7.2137
G1 X-13.427 Y57.108 E7.2940
G1 X-13.928 Y57.147 E7.3347
G1 X-35.933 Y57.157 E9.1131
G1 X-36.311 Y57.135 E9.1438
G1 X-37.543 Y56.991 E9.2440
G1 X-38.159 Y56.859 E9.2949
G1 X-39.227 Y56.518 E9.3855
G1 X-39.806 Y56.269 E9.4364
G1 X-41.003 Y55.612 E9.5468
G1 X-41.523 Y55.257 E9.5977
G1 X-42.384 Y54.539 E9.6883
G1 X-42.827 Y54.091 E9.7392
G1 X-43.688 Y53.031 E9.8496
G1 X-44.037 Y52.507 E9.9005
G1 X-44.534 Y51.573 E9.9860
G1 X-44.736 Y51.112 E10.0267
G1 X-45.063 Y50.172 E10.1071
G1 X-45.191 Y49.685 E10.1478
G1 X-45.347 Y48.830 E10.2180
G1 X-45.383 Y48.581 E10.2384
G1 X-48.416 Y19.332 E12.6150
G1 X-48.431 Y19.123 E12.6320
G1 X-48.467 Y18.204 E12.7063
G1 X-48.456 Y17.784 E12.7403
G1 X-48.364 Y16.763 E12.8231
G1 X-48.300 Y16.348 E12.8570
G1 X-48.066 Y15.297 E12.9441
G1 X-47.912 Y14.795 E12.9865
G1 X-47.381 Y13.465 E13.1022
G1 X-47.148 Y12.995 E13.1447
G1 X-46.593 Y12.071 E13.2317
G1 X-46.355 Y11.726 E13.2657
G1 X-45.686 Y10.881 E13.3528
G1 X-45.328 Y10.497 E13.3952
G1 X-44.272 Y9.531 E13.5109
G1 X-43.857 Y9.209 E13.5533
G1 X-43.396 Y8.907 E13.5979
G1 X-43.410 Y8.882 E13.6002
G1 X-43.946 Y7.781 E13.6992
G1 X-44.116 Y7.358 E13.7360
G1 X-44.493 Y6.194 E13.8349
G1 X-44.602 Y5.752 E13.8717
G1 X-44.794 Y4.658 E13.9615
G1 X-44.825 Y4.433 E13.9799
G1 X-48.446 Y-30.487 E16.8172
G1 X-48.464 Y-30.823 E16.8445
G1 X-48.464 Y-45.253 E18.0107
G1 X-48.455 Y-45.486 E18.0295
G1 X-48.379 Y-46.559 E18.1165
G1 X-48.335 Y-46.905 E18.1447
G1 X-48.214 Y-47.578 E18.2000
G1 X-48.164 Y-47.805 E18.2188
G1 X-47.995 Y-48.468 E18.2740
G1 X-47.891 Y-48.801 E18.3022
G1 X-47.474 Y-49.918 E18.3986
G1 X-47.281 Y-50.342 E18.4362
G1 X-46.682 Y-51.439 E18.5373
G1 X-46.430 Y-51.831 E18.5750
G1 X-45.680 Y-52.832 E18.6760
G1 X-45.375 Y-53.184 E18.7137
G1 X-44.491 Y-54.068 E18.8147
G1 X-44.139 Y-54.373 E18.8524
G1 X-43.185 Y-55.088 E18.9487
G1 X-42.894 Y-55.282 E18.9769
G1 X-42.256 Y-55.660 E19.0369
G1 X-41.947 Y-55.822 E19.0651
G1 X-40.863 Y-56.317 E19.1615
G1 X-40.426 Y-56.480 E19.1991
G1 X-39.226 Y-56.832 E19.3002
G1 X-38.771 Y-56.931 E19.3378
G1 X-37.534 Y-57.109 E19.4389
G1 X-37.069 Y-57.143 E19.4765
G1 X-7.375 Y-57.143 E21.8765
G1 X-6.910 Y-57.109 E21.9141
G1 X-5.673 Y-56.931 E22.0152
G1 X-5.217 Y-56.832 E22.0528
G1 X-4.074 Y-56.497 E22.1492
G1 X-3.744 Y-56.380 E22.1774
G1 X-3.113 Y-56.119 E22.2327
G1 X-2.901 Y-56.022 E22.2515
G1 X-2.290 Y-55.716 E22.3067
G1 X-1.986 Y-55.543 E22.3350
G1 X-0.983 Y-54.899 E22.4313
G1 X-0.610 Y-54.620 E22.4690
G1 X-0.011 Y-54.100 E22.5331
G1 X0.305 Y-54.373 E22.5668
G1 X1.306 Y-55.123 E22.6679
G1 X1.697 Y-55.374 E22.7055
G1 X2.744 Y-55.946 E22.8019
G1 X3.059 Y-56.096 E22.8301
G1 X3.744 Y-56.380 E22.8900
G1 X4.074 Y-56.497 E22.9183
G1 X5.217 Y-56.832 E23.0146
G1 X5.673 Y-56.931 E23.0523
G1 X6.910 Y-57.109 E23.1533
G1 X7.375 Y-57.143 E23.1910
G1 X37.069 Y-57.143 E25.5909
G1 X37.534 Y-57.109 E25.6286
G1 X38.771 Y-56.931 E25.7296
G1 X39.226 Y-56.832 E25.7673
G1 X40.370 Y-56.496 E25.8636
G1 X40.700 Y-56.380 E25.8918
G1 X41.331 Y-56.119 E25.9471
G1 X41.543 Y-56.022 E25.9659
G1 X42.154 Y-55.716 E26.0212
G1 X42.458 Y-55.543 E26.0494
G1 X43.461 Y-54.899 E26.1458
G1 X43.834 Y-54.620 E26.1834
G1 X44.735 Y-53.839 E26.2797
G1 X44.986 Y-53.596 E26.3080
G1 X45.491 Y-53.053 E26.3679
G1 X45.715 Y-52.785 E26.3962
G1 X46.395 Y-51.878 E26.4878
G1 X46.589 Y-51.587 E26.5160
G1 X46.967 Y-50.949 E26.5760
G1 X47.129 Y-50.640 E26.6042
G1 X47.600 Y-49.608 E26.6959
G1 X47.728 Y-49.283 E26.7241
G1 X47.963 Y-48.579 E26.7840
G1 X48.055 Y-48.243 E26.8123
G1 X48.308 Y-47.078 E26.9086
G1 X48.375 Y-46.617 E26.9463
G1 X48.455 Y-45.486 E27.0379
G1 X48.464 Y-45.253 E27.0567
G1 X48.464 Y-30.823 E28.2230
G1 X48.446 Y-30.487 E28.2502
G1 X44.831 Y4.376 E31.0830
G1 X44.817 Y4.489 E31.0922
G1 X44.733 Y5.095 E31.1417
G1 X44.668 Y5.431 E31.1693
G1 X44.387 Y6.563 E31.2636
G1 X44.247 Y6.997 E31.3004
G1 X43.790 Y8.132 E31.3994
G1 X43.590 Y8.542 E31.4362
G1 X42.979 Y9.603 E31.5351
G1 X42.725 Y9.981 E31.5719
G1 X41.972 Y10.946 E31.6709
G1 X41.668 Y11.285 E31.7077
G1 X40.788 Y12.136 E31.8066
G1 X40.439 Y12.429 E31.8434
G1 X39.495 Y13.115 E31.9378
G1 X39.209 Y13.301 E31.9654
G1 X38.580 Y13.665 E32.0241
G1 X38.276 Y13.820 E32.0517
G1 X37.210 Y14.295 E32.1460
G1 X36.782 Y14.451 E32.1828
G1 X36.365 Y14.571 E32.2179
G92 E0.0000
G1 E-3.0000 F6000
G1 Z0.500 F1002
G1 X36.559 Y13.766 F6000
G1 Z0.300 F1002
G1 E0.0000 F6000
G92 E0.0000
G1 X35.431 Y14.090 E0.0948 F3000
G1 X35.414 Y14.093 E0.0962
G1 X35.482 Y14.248 E0.1098
G1 X35.831 Y15.212 E0.1927
G1 X35.954 Y15.663 E0.2305
G1 X36.218 Y17.058 E0.3452
G1 X36.268 Y17.617 E0.3906
G1 X36.259 Y18.943 E0.4978
G1 X36.243 Y19.223 E0.5204
G1 X33.202 Y48.548 E2.9033
G1 X33.148 Y48.880 E2.9304
G1 X32.891 Y50.036 E3.0261
G1 X32.717 Y50.568 E3.0714
G1 X32.318 Y51.480 E3.1519
G1 X32.107 Y51.876 E3.1881
G1 X31.603 Y52.668 E3.2640
G1 X31.334 Y53.026 E3.3002
G1 X30.677 Y53.774 E3.3806
G1 X30.268 Y54.157 E3.4259
G1 X29.241 Y54.948 E3.5307
G1 X28.767 Y55.246 E3.5760
G1 X27.876 Y55.691 E3.6564
G1 X27.461 Y55.860 E3.6926
G1 X26.566 Y56.145 E3.7685
G1 X26.130 Y56.248 E3.8048
G1 X25.203 Y56.392 E3.8806
G1 X24.757 Y56.427 E3.9167
G1 X2.801 Y56.437 E5.6913
G1 X2.465 Y56.417 E5.7185
G1 X1.288 Y56.280 E5.8142
G1 X0.740 Y56.162 E5.8595
G1 X-0.261 Y55.843 E5.9445
G1 X-0.776 Y55.621 E5.9898
G1 X-1.912 Y54.998 E6.0946
G1 X-2.375 Y54.682 E6.1398
G1 X-3.183 Y54.009 E6.2248
G1 X-3.576 Y53.610 E6.2701
G1 X-4.394 Y52.604 E6.3749
G1 X-4.704 Y52.137 E6.4201
G1 X-5.172 Y51.259 E6.5006
G1 X-5.351 Y50.848 E6.5368
G1 X-5.660 Y49.961 E6.6127
G1 X-5.739 Y49.661 E6.6378
G1 X-5.823 Y50.036 E6.6688
G1 X-5.997 Y50.568 E6.7141
G1 X-6.396 Y51.480 E6.7945
G1 X-6.606 Y51.876 E6.8308
G1 X-7.111 Y52.668 E6.9067
G1 X-7.380 Y53.026 E6.9429
G1 X-8.037 Y53.774 E7.0233
G1 X-8.446 Y54.157 E7.0686
G1 X-9.472 Y54.948 E7.1734
G1 X-9.947 Y55.246 E7.2186
G1 X-10.837 Y55.691 E7.2991
G1 X-11.253 Y55.860 E7.3353
G1 X-12.147 Y56.145 E7.4112
G1 X-12.583 Y56.248 E7.4474
G1 X-13.511 Y56.392 E7.5233
G1 X-13.956 Y56.427 E7.5594
G1 X-35.912 Y56.437 E9.3339
G1 X-36.249 Y56.417 E9.3612
G1 X-37.425 Y56.280 E9.4569
G1 X-37.973 Y56.162 E9.5022
G1 X-38.975 Y55.843 E9.5872
G1 X-39.490 Y55.621 E9.6325
G1 X-40.626 Y54.998 E9.7372
G1 X-41.089 Y54.682 E9.7825
G1 X-41.896 Y54.009 E9.8675
G1 X-42.290 Y53.610 E9.9128
G1 X-43.108 Y52.604 E10.0175
G1 X-43.417 Y52.138 E10.0628
G1 X-43.885 Y51.259 E10.1433
G1 X-44.065 Y50.849 E10.1795
G1 X-44.374 Y49.962 E10.2554
G1 X-44.488 Y49.528 E10.2916
G1 X-44.637 Y48.714 E10.3585
G1 X-44.668 Y48.493 E10.3766
G1 X-47.699 Y19.270 E12.7511
G1 X-47.712 Y19.083 E12.7662
G1 X-47.747 Y18.199 E12.8377
G1 X-47.737 Y17.826 E12.8679
G1 X-47.649 Y16.851 E12.9470
G1 X-47.592 Y16.482 E12.9772
G1 X-47.370 Y15.481 E13.0601
G1 X-47.232 Y15.035 E13.0978
G1 X-46.723 Y13.759 E13.2088
G1 X-46.516 Y13.340 E13.2466
G1 X-45.988 Y12.461 E13.3294
G1 X-45.776 Y12.154 E13.3596
G1 X-45.140 Y11.350 E13.4425
G1 X-44.821 Y11.008 E13.4802
G1 X-43.807 Y10.082 E13.5912
G1 X-43.438 Y9.795 E13.6290
G1 X-42.581 Y9.234 E13.7118
G1 X-42.409 Y9.137 E13.7278
G1 X-42.571 Y8.895 E13.7513
G1 X-42.774 Y8.544 E13.7841
G1 X-43.287 Y7.489 E13.8789
G1 X-43.439 Y7.113 E13.9117
G1 X-43.800 Y5.996 E14.0065
G1 X-43.898 Y5.603 E14.0393
G1 X-44.082 Y4.546 E14.1260
G1 X-44.110 Y4.346 E14.1423
G1 X-47.728 Y-30.542 E16.9772
G1 X-47.744 Y-30.842 E17.0014
G1 X-47.744 Y-45.240 E18.1651
G1 X-47.736 Y-45.447 E18.1819
G1 X-47.662 Y-46.488 E18.2662
G1 X-47.623 Y-46.796 E18.2913
G1 X-47.508 Y-47.437 E18.3440
G1 X-47.464 Y-47.640 E18.3607
G1 X-47.302 Y-48.271 E18.4134
G1 X-47.210 Y-48.567 E18.4385
G1 X-46.809 Y-49.642 E18.5312
G1 X-46.637 Y-50.019 E18.5647
G1 X-46.062 Y-51.072 E18.6616
G1 X-45.838 Y-51.420 E18.6951
G1 X-45.119 Y-52.380 E18.7920
G1 X-44.848 Y-52.693 E18.8255
G1 X-44.000 Y-53.541 E18.9224
G1 X-43.687 Y-53.812 E18.9559
G1 X-42.769 Y-54.500 E19.0486
G1 X-42.510 Y-54.672 E19.0737
G1 X-41.906 Y-55.031 E19.1305
G1 X-41.630 Y-55.175 E19.1556
G1 X-40.587 Y-55.652 E19.2484
G1 X-40.199 Y-55.797 E19.2818
G1 X-39.048 Y-56.134 E19.3788
G1 X-38.643 Y-56.222 E19.4122
G1 X-37.457 Y-56.393 E19.5091
G1 X-37.043 Y-56.423 E19.5426
G1 X-7.400 Y-56.423 E21.9384
G1 X-6.987 Y-56.393 E21.9719
G1 X-5.800 Y-56.222 E22.0688
G1 X-5.396 Y-56.134 E22.1023
G1 X-4.295 Y-55.811 E22.1950
G1 X-4.002 Y-55.708 E22.2201
G1 X-3.400 Y-55.458 E22.2728
G1 X-3.212 Y-55.372 E22.2895
G1 X-2.629 Y-55.081 E22.3422
G1 X-2.359 Y-54.927 E22.3673
G1 X-1.394 Y-54.307 E22.4600
G1 X-1.062 Y-54.059 E22.4935
G1 X-0.195 Y-53.307 E22.5862
G1 X0.011 Y-53.108 E22.6094
G1 X0.443 Y-53.541 E22.6588
G1 X0.757 Y-53.812 E22.6923
G1 X1.716 Y-54.531 E22.7892
G1 X2.065 Y-54.755 E22.8227
G1 X3.072 Y-55.305 E22.9154
G1 X3.352 Y-55.439 E22.9405
G1 X4.002 Y-55.708 E22.9974
G1 X4.295 Y-55.811 E23.0225
G1 X5.396 Y-56.134 E23.1152
G1 X5.800 Y-56.222 E23.1487
G1 X6.987 Y-56.393 E23.2456
G1 X7.400 Y-56.423 E23.2791
G1 X37.043 Y-56.423 E25.6749
G1 X37.457 Y-56.393 E25.7083
G1 X38.643 Y-56.222 E25.8053
G1 X39.048 Y-56.134 E25.8387
G1 X40.149 Y-55.811 E25.9315
G1 X40.442 Y-55.708 E25.9566
