; G-Code generated by Simplify3D(R) Version 4.1.2
; Jun 5, 2020 at 12:52:33 PM
; Settings Summary
;   processName,Predator
;   applyToModels,Heatbed_Holder_v2
;   profileName,Anycubic Predator (modified)
;   profileVersion,2020-06-04 23:41:55
;   baseProfile,
;   printMaterial,PLA
;   printQuality,Medium
;   printExtruders,
;   extruderName,Primary Extruder
;   extruderToolheadNumber,0
;   extruderDiameter,0.6
;   extruderAutoWidth,1
;   extruderWidth,0.72
;   extrusionMultiplier,0.9
;   extruderUseRetract,1
;   extruderRetractionDistance,3
;   extruderExtraRestartDistance,0
;   extruderRetractionZLift,0.2
;   extruderRetractionSpeed,6000
;   extruderUseCoasting,0
;   extruderCoastingDistance,0.2
;   extruderUseWipe,0
;   extruderWipeDistance,5
;   primaryExtruder,0
;   layerHeight,0.3
;   topSolidLayers,4
;   bottomSolidLayers,4
;   perimeterOutlines,2
;   printPerimetersInsideOut,1
;   startPointOption,2
;   startPointOriginX,0
;   startPointOriginY,0
;   sequentialIslands,0
;   spiralVaseMode,0
;   firstLayerHeightPercentage,100
;   firstLayerWidthPercentage,100
;   firstLayerUnderspeed,0.5
;   useRaft,0
;   raftExtruder,0
;   raftTopLayers,3
;   raftBaseLayers,2
;   raftOffset,3
;   raftSeparationDistance,0.14
;   raftTopInfill,100
;   aboveRaftSpeedMultiplier,0.3
;   useSkirt,1
;   skirtExtruder,0
;   skirtLayers,1
;   skirtOutlines,4
;   skirtOffset,4
;   usePrimePillar,0
;   primePillarExtruder,999
;   primePillarWidth,12
;   primePillarLocation,7
;   primePillarSpeedMultiplier,1
;   useOozeShield,0
;   oozeShieldExtruder,999
;   oozeShieldOffset,2
;   oozeShieldOutlines,1
;   oozeShieldSidewallShape,1
;   oozeShieldSidewallAngle,30
;   oozeShieldSpeedMultiplier,1
;   infillExtruder,0
;   internalInfillPattern,Rectilinear
;   externalInfillPattern,Rectilinear
;   infillPercentage,20
;   outlineOverlapPercentage,15
;   infillExtrusionWidthPercentage,100
;   minInfillLength,5
;   infillLayerInterval,1
;   internalInfillAngles,45,-45
;   overlapInternalInfillAngles,0
;   externalInfillAngles,45,-45
;   generateSupport,0
;   supportExtruder,0
;   supportInfillPercentage,30
;   supportExtraInflation,0
;   supportBaseLayers,0
;   denseSupportExtruder,0
;   denseSupportLayers,0
;   denseSupportInfillPercentage,70
;   supportLayerInterval,1
;   supportHorizontalPartOffset,0.3
;   supportUpperSeparationLayers,1
;   supportLowerSeparationLayers,1
;   supportType,0
;   supportGridSpacing,4
;   maxOverhangAngle,45
;   supportAngles,0
;   temperatureName,Primary Extruder,Heated Bed
;   temperatureNumber,0,0
;   temperatureSetpointCount,1,1
;   temperatureSetpointLayers,1,1
;   temperatureSetpointTemperatures,205,60
;   temperatureStabilizeAtStartup,1,1
;   temperatureHeatedBed,0,1
;   fanLayers,1,2
;   fanSpeeds,0,100
;   blipFanToFullPower,0
;   adjustSpeedForCooling,1
;   minSpeedLayerTime,5
;   minCoolingSpeedSlowdown,50
;   increaseFanForCooling,1
;   minFanLayerTime,20
;   maxCoolingFanSpeed,100
;   increaseFanForBridging,1
;   bridgingFanSpeed,100
;   use5D,1
;   relativeEdistances,0
;   allowEaxisZeroing,1
;   independentExtruderAxes,0
;   includeM10123,0
;   stickySupport,1
;   applyToolheadOffsets,0
;   gcodeXoffset,0
;   gcodeYoffset,0
;   gcodeZoffset,0
;   overrideMachineDefinition,1
;   machineTypeOverride,1
;   strokeXoverride,261.6
;   strokeYoverride,261.6
;   strokeZoverride,455
;   originOffsetXoverride,130.8
;   originOffsetYoverride,130.8
;   originOffsetZoverride,0
;   homeXdirOverride,0
;   homeYdirOverride,0
;   homeZdirOverride,1
;   flipXoverride,1
;   flipYoverride,-1
;   flipZoverride,1
;   toolheadOffsets,0,0|0,0|0,0|0,0|0,0|0,0
;   overrideFirmwareConfiguration,1
;   firmwareTypeOverride,RepRap (Marlin/Repetier/Sprinter)
;   GPXconfigOverride,r2
;   baudRateOverride,115200
;   overridePrinterModels,1
;   printerModelsOverride
;   startingGcode,G28 ; home all axes
;   layerChangeGcode,
;   retractionGcode,
;   toolChangeGcode,
;   endingGcode,M104 S0 ; turn off extruder,M140 S0 ; turn off bed,G28 ; home all axes,M106 S0,; M84 ; disable motors
;   exportFileFormat,gcode
;   celebration,0
;   celebrationSong,Random Song
;   postProcessing,
;   defaultSpeed,6000
;   outlineUnderspeed,0.6
;   solidInfillUnderspeed,0.8
;   supportUnderspeed,0.8
;   rapidXYspeed,6000
;   rapidZspeed,1002
;   minBridgingArea,50
;   bridgingExtraInflation,0
;   bridgingExtrusionMultiplier,1
;   bridgingSpeedMultiplier,1
;   useFixedBridgingAngle,0
;   fixedBridgingAngle,0
;   applyBridgingToPerimeters,0
;   filamentDiameters,1.75|1.75|1.75|1.75|1.75|1.75
;   filamentPricesPerKg,20|46|46|46|46|46
;   filamentDensities,1.25|1.25|1.25|1.25|1.25|1.25
;   useMinPrintHeight,0
;   minPrintHeight,0
;   useMaxPrintHeight,0
;   maxPrintHeight,0
;   useDiaphragm,0
;   diaphragmLayerInterval,20
;   robustSlicing,1
;   mergeAllIntoSolid,0
;   onlyRetractWhenCrossingOutline,1
;   retractBetweenLayers,1
;   useRetractionMinTravel,0
;   retractionMinTravel,3
;   retractWhileWiping,0
;   onlyWipeOutlines,1
;   avoidCrossingOutline,0
;   maxMovementDetourFactor,3
;   toolChangeRetractionDistance,12
;   toolChangeExtraRestartDistance,-0.5
;   toolChangeRetractionSpeed,600
;   externalThinWallType,1
;   internalThinWallType,1
;   thinWallAllowedOverlapPercentage,10
;   singleExtrusionMinLength,1
;   singleExtrusionMinPrintingWidthPercentage,50
;   singleExtrusionMaxPrintingWidthPercentage,200
;   singleExtrusionEndpointExtension,0.2
;   horizontalSizeCompensation,0
G90
M82
M106 S0
M140 S60
M190 S60
M104 S205 T0
M109 S205 T0
G28 ; home all axes
; process Predator
; layer 1, Z = 0.300
T0
G92 E0.0000
G1 E-3.0000 F6000
; feature skirt
; tool H0.300 W0.720
G1 Z0.300 F1002
G1 X-5.393 Y13.314 F6000
G1 E0.0000 F6000
G92 E0.0000
G1 X-5.311 Y13.473 E0.0145 F3000
G1 X-5.232 Y13.638 E0.0293
G1 X-4.836 Y14.522 E0.1075
G1 X-4.766 Y14.691 E0.1223
G1 X-4.421 Y15.595 E0.2006
G1 X-4.360 Y15.768 E0.2154
G1 X-4.066 Y16.690 E0.2936
G1 X-4.016 Y16.866 E0.3084
G1 X-3.774 Y17.804 E0.3866
G1 X-3.733 Y17.982 E0.4014
G1 X-3.544 Y18.932 E0.4797
G1 X-3.514 Y19.112 E0.4945
G1 X-3.378 Y20.070 E0.5727
G1 X-3.358 Y20.252 E0.5875
G1 X-3.277 Y21.217 E0.6657
G1 X-3.266 Y21.400 E0.6805
G1 X-3.240 Y22.322 E0.7551
G1 X-3.239 Y22.413 E0.7625
G1 X-3.239 Y51.660 E3.1262
G1 X-7.058 Y55.479 E3.5628
G1 X-15.060 Y55.479 E4.2095
G1 X-18.879 Y51.660 E4.6460
G1 X-18.879 Y42.387 E5.3954
G1 X-19.041 Y42.429 E5.4090
G1 X-19.226 Y42.472 E5.4243
G1 X-20.209 Y42.670 E5.5053
G1 X-20.395 Y42.702 E5.5206
G1 X-21.388 Y42.842 E5.6017
G1 X-21.576 Y42.863 E5.6170
G1 X-22.576 Y42.945 E5.6980
G1 X-22.765 Y42.955 E5.7133
G1 X-23.767 Y42.979 E5.7944
G1 X-23.956 Y42.978 E5.8096
G1 X-24.958 Y42.944 E5.8907
G1 X-25.148 Y42.932 E5.9060
G1 X-26.146 Y42.840 E5.9870
G1 X-26.334 Y42.817 E6.0023
G1 X-27.325 Y42.667 E6.0834
G1 X-27.512 Y42.633 E6.0987
G1 X-28.493 Y42.426 E6.1797
G1 X-28.677 Y42.381 E6.1950
G1 X-29.359 Y42.195 E6.2522
G1 X-29.622 Y42.999 E6.3205
G1 X-33.045 Y45.479 E6.6622
G1 X-40.460 Y45.479 E7.2614
G1 X-44.279 Y41.660 E7.6980
G1 X-44.279 Y22.413 E9.2535
G1 X-44.278 Y22.322 E9.2609
G1 X-44.252 Y21.400 E9.3355
G1 X-44.242 Y21.217 E9.3502
G1 X-44.160 Y20.252 E9.4285
G1 X-44.140 Y20.071 E9.4433
G1 X-44.005 Y19.112 E9.5215
G1 X-43.974 Y18.932 E9.5363
G1 X-43.785 Y17.982 E9.6146
G1 X-43.744 Y17.804 E9.6293
G1 X-43.502 Y16.866 E9.7076
G1 X-43.452 Y16.690 E9.7224
G1 X-43.158 Y15.768 E9.8006
G1 X-43.097 Y15.595 E9.8154
G1 X-42.752 Y14.691 E9.8937
G1 X-42.682 Y14.522 E9.9084
G1 X-42.287 Y13.638 E9.9867
G1 X-42.207 Y13.473 E10.0015
G1 X-41.763 Y12.613 E10.0797
G1 X-41.674 Y12.453 E10.0945
G1 X-41.183 Y11.619 E10.1728
G1 X-41.085 Y11.464 E10.1875
G1 X-40.547 Y10.659 E10.2658
G1 X-40.442 Y10.510 E10.2806
G1 X-39.859 Y9.736 E10.3588
G1 X-39.745 Y9.593 E10.3736
G1 X-39.121 Y8.854 E10.4519
G1 X-38.999 Y8.717 E10.4666
G1 X-38.365 Y8.047 E10.5412
G1 X-38.301 Y7.981 E10.5486
G1 X4.795 Y-35.115 E15.4744
G1 X4.897 Y-36.234 E15.5653
G1 X5.191 Y-37.324 E15.6565
G1 X5.752 Y-38.526 E15.7637
G1 X6.205 Y-39.239 E15.8320
G1 X6.684 Y-39.813 E15.8925
G1 X6.882 Y-40.030 E15.9162
G1 X11.123 Y-44.271 E16.4009
G1 X16.524 Y-44.271 E16.8375
G1 X33.072 Y-27.724 E18.7288
G1 X33.071 Y-22.323 E19.1654
G1 X28.830 Y-18.081 E19.6502
G1 X28.612 Y-17.882 E19.6740
G1 X28.038 Y-17.404 E19.7344
G1 X27.325 Y-16.951 E19.8027
G1 X26.118 Y-16.388 E19.9103
G1 X25.016 Y-16.093 E20.0025
G1 X23.917 Y-15.997 E20.0917
G1 X-5.393 Y13.314 E23.4419
G92 E0.0000
G1 E-3.0000 F6000
G1 Z0.500 F1002
G1 X-5.955 Y13.795 F6000
G1 Z0.300 F1002
G1 E0.0000 F6000
G92 E0.0000
G1 X-5.885 Y13.941 E0.0131 F3000
G1 X-5.497 Y14.807 E0.0898
G1 X-5.435 Y14.957 E0.1029
G1 X-5.097 Y15.843 E0.1795
G1 X-5.043 Y15.996 E0.1927
G1 X-4.756 Y16.899 E0.2693
G1 X-4.710 Y17.056 E0.2825
G1 X-4.474 Y17.974 E0.3591
G1 X-4.437 Y18.132 E0.3722
G1 X-4.253 Y19.062 E0.4488
G1 X-4.225 Y19.222 E0.4620
G1 X-4.093 Y20.161 E0.5386
G1 X-4.075 Y20.323 E0.5518
G1 X-3.995 Y21.267 E0.6284
G1 X-3.986 Y21.430 E0.6415
G1 X-3.960 Y22.337 E0.7149
G1 X-3.959 Y22.418 E0.7214
G1 X-3.959 Y51.361 E3.0607
G1 X-7.357 Y54.759 E3.4490
G1 X-14.762 Y54.759 E4.0475
G1 X-18.159 Y51.361 E4.4358
G1 X-18.159 Y41.451 E5.2368
G1 X-18.276 Y41.484 E5.2466
G1 X-19.214 Y41.730 E5.3250
G1 X-19.378 Y41.768 E5.3386
G1 X-20.340 Y41.962 E5.4180
G1 X-20.506 Y41.990 E5.4316
G1 X-21.478 Y42.127 E5.5109
G1 X-21.646 Y42.146 E5.5246
G1 X-22.624 Y42.227 E5.6039
G1 X-22.793 Y42.235 E5.6175
G1 X-23.774 Y42.259 E5.6969
G1 X-23.942 Y42.258 E5.7105
G1 X-24.924 Y42.225 E5.7898
G1 X-25.092 Y42.214 E5.8034
G1 X-26.069 Y42.124 E5.8828
G1 X-26.236 Y42.103 E5.8964
G1 X-27.207 Y41.957 E5.9757
G1 X-27.373 Y41.926 E5.9894
G1 X-28.333 Y41.723 E6.0687
G1 X-28.497 Y41.684 E6.0823
G1 X-29.434 Y41.428 E6.1608
G1 X-29.575 Y41.386 E6.1727
G1 X-29.824 Y41.304 E6.1939
G1 X-30.234 Y42.553 E6.3001
G1 X-33.279 Y44.759 E6.6040
G1 X-40.162 Y44.759 E7.1603
G1 X-43.559 Y41.361 E7.5487
G1 X-43.559 Y22.418 E9.0797
G1 X-43.558 Y22.337 E9.0863
G1 X-43.533 Y21.430 E9.1596
G1 X-43.523 Y21.267 E9.1727
G1 X-43.444 Y20.323 E9.2494
G1 X-43.426 Y20.161 E9.2625
G1 X-43.293 Y19.223 E9.3391
G1 X-43.266 Y19.062 E9.3523
G1 X-43.081 Y18.132 E9.4289
G1 X-43.045 Y17.974 E9.4420
G1 X-42.808 Y17.056 E9.5187
G1 X-42.763 Y16.899 E9.5318
G1 X-42.475 Y15.996 E9.6084
G1 X-42.421 Y15.843 E9.6216
G1 X-42.083 Y14.957 E9.6982
G1 X-42.021 Y14.807 E9.7113
G1 X-41.634 Y13.941 E9.7880
G1 X-41.563 Y13.795 E9.8011
G1 X-41.128 Y12.952 E9.8777
G1 X-41.049 Y12.810 E9.8909
G1 X-40.568 Y11.994 E9.9675
G1 X-40.481 Y11.856 E9.9807
G1 X-39.954 Y11.068 E10.0573
G1 X-39.860 Y10.935 E10.0704
G1 X-39.290 Y10.177 E10.1470
G1 X-39.189 Y10.050 E10.1602
G1 X-38.577 Y9.326 E10.2368
G1 X-38.469 Y9.205 E10.2500
G1 X-37.845 Y8.545 E10.3233
G1 X-37.789 Y8.487 E10.3299
G1 X5.488 Y-34.790 E15.2764
G1 X5.608 Y-36.107 E15.3833
G1 X5.870 Y-37.076 E15.4644
G1 X6.384 Y-38.179 E15.5628
G1 X6.788 Y-38.814 E15.6236
G1 X7.226 Y-39.340 E15.6789
G1 X7.403 Y-39.533 E15.7000
G1 X11.421 Y-43.551 E16.1593
G1 X16.226 Y-43.551 E16.5477
G1 X32.352 Y-27.426 E18.3908
G1 X32.351 Y-22.621 E18.7792
G1 X28.332 Y-18.601 E19.2386
G1 X28.138 Y-18.425 E19.2598
G1 X27.613 Y-17.987 E19.3151
G1 X26.979 Y-17.584 E19.3758
G1 X25.871 Y-17.067 E19.4746
G1 X24.891 Y-16.805 E19.5566
G1 X23.593 Y-16.691 E19.6619
G1 X-6.275 Y13.177 E23.0757
G1 X-5.955 Y13.795 E23.1320
G92 E0.0000
G1 E-3.0000 F6000
G1 Z0.500 F1002
G1 X-6.600 Y14.116 F6000
G1 Z0.300 F1002
G1 E0.0000 F6000
G92 E0.0000
G1 X-6.538 Y14.245 E0.0115 F3000
G1 X-6.159 Y15.091 E0.0865
G1 X-6.104 Y15.223 E0.0980
G1 X-5.773 Y16.090 E0.1730
G1 X-5.726 Y16.224 E0.1845
G1 X-5.445 Y17.108 E0.2595
G1 X-5.405 Y17.245 E0.2710
G1 X-5.173 Y18.144 E0.3460
G1 X-5.142 Y18.283 E0.3575
G1 X-4.961 Y19.193 E0.4325
G1 X-4.937 Y19.333 E0.4440
G1 X-4.807 Y20.252 E0.5190
G1 X-4.791 Y20.393 E0.5305
G1 X-4.713 Y21.318 E0.6055
G1 X-4.705 Y21.460 E0.6170
G1 X-4.680 Y22.352 E0.6892
G1 X-4.679 Y22.423 E0.6949
G1 X-4.679 Y51.063 E3.0096
G1 X-7.655 Y54.039 E3.3498
G1 X-14.463 Y54.039 E3.9000
G1 X-17.439 Y51.063 E4.2402
G1 X-17.439 Y40.477 E5.0958
G1 X-17.440 Y40.468 E5.0965
G1 X-18.345 Y40.755 E5.1732
G1 X-18.467 Y40.790 E5.1835
G1 X-19.386 Y41.031 E5.2603
G1 X-19.530 Y41.064 E5.2722
G1 X-20.472 Y41.254 E5.3499
G1 X-20.617 Y41.279 E5.3618
G1 X-21.569 Y41.413 E5.4394
G1 X-21.715 Y41.429 E5.4514
G1 X-22.673 Y41.508 E5.5290
G1 X-22.820 Y41.516 E5.5410
G1 X-23.781 Y41.539 E5.6186
G1 X-23.928 Y41.538 E5.6305
G1 X-24.889 Y41.506 E5.7082
G1 X-25.036 Y41.496 E5.7201
G1 X-25.993 Y41.408 E5.7978
G1 X-26.139 Y41.390 E5.8097
G1 X-27.089 Y41.246 E5.8873
G1 X-27.234 Y41.220 E5.8993
G1 X-28.174 Y41.021 E5.9769
G1 X-28.318 Y40.986 E5.9888
G1 X-29.235 Y40.736 E6.0657
G1 X-29.359 Y40.699 E6.0762
G1 X-30.284 Y40.395 E6.1548
G1 X-30.845 Y42.107 E6.3004
G1 X-33.512 Y44.039 E6.5666
G1 X-39.863 Y44.039 E7.0799
G1 X-42.839 Y41.063 E7.4200
G1 X-42.839 Y22.423 E8.9265
G1 X-42.838 Y22.352 E8.9323
G1 X-42.813 Y21.460 E9.0044
G1 X-42.805 Y21.318 E9.0159
G1 X-42.727 Y20.393 E9.0909
G1 X-42.711 Y20.252 E9.1024
G1 X-42.581 Y19.333 E9.1774
G1 X-42.558 Y19.193 E9.1889
G1 X-42.377 Y18.283 E9.2639
G1 X-42.345 Y18.144 E9.2754
G1 X-42.113 Y17.245 E9.3504
G1 X-42.074 Y17.108 E9.3620
G1 X-41.792 Y16.224 E9.4369
G1 X-41.745 Y16.090 E9.4484
G1 X-41.414 Y15.223 E9.5234
G1 X-41.359 Y15.092 E9.5349
G1 X-40.981 Y14.245 E9.6099
G1 X-40.919 Y14.116 E9.6215
G1 X-40.493 Y13.292 E9.6964
G1 X-40.424 Y13.167 E9.7080
G1 X-39.953 Y12.368 E9.7829
G1 X-39.877 Y12.247 E9.7945
G1 X-39.361 Y11.476 E9.8694
G1 X-39.279 Y11.360 E9.8810
G1 X-38.721 Y10.618 E9.9560
G1 X-38.632 Y10.507 E9.9675
G1 X-38.033 Y9.798 E10.0425
G1 X-37.939 Y9.692 E10.0540
G1 X-37.326 Y9.044 E10.1261
G1 X-37.276 Y8.992 E10.1318
G1 X6.227 Y-34.511 E15.1043
G1 X6.207 Y-34.748 E15.1235
G1 X6.320 Y-35.979 E15.2234
G1 X6.549 Y-36.828 E15.2945
G1 X7.017 Y-37.833 E15.3841
G1 X7.370 Y-38.388 E15.4373
G1 X7.769 Y-38.866 E15.4876
G1 X7.923 Y-39.035 E15.5061
G1 X11.719 Y-42.831 E15.9400
G1 X15.928 Y-42.831 E16.2801
G1 X31.632 Y-27.128 E18.0750
G1 X31.631 Y-22.919 E18.4152
G1 X27.834 Y-19.122 E18.8492
G1 X27.665 Y-18.967 E18.8677
G1 X27.188 Y-18.570 E18.9179
G1 X26.632 Y-18.217 E18.9711
G1 X25.624 Y-17.746 E19.0611
G1 X24.765 Y-17.516 E19.1329
G1 X23.521 Y-17.408 E19.2338
G1 X23.310 Y-17.426 E19.2509
G1 X-7.164 Y13.048 E22.7342
G1 X-7.094 Y13.167 E22.7453
G1 X-7.025 Y13.292 E22.7568
G1 X-6.600 Y14.116 E22.8318
G92 E0.0000
G1 E-3.0000 F6000
G1 Z0.500 F1002
G1 X-7.244 Y14.438 F6000
G1 Z0.300 F1002
G1 E0.0000 F6000
G92 E0.0000
G1 X-7.191 Y14.548 E0.0099 F3000
G1 X-6.820 Y15.376 E0.0832
G1 X-6.773 Y15.489 E0.0931
G1 X-6.450 Y16.337 E0.1665
G1 X-6.409 Y16.453 E0.1764
G1 X-6.134 Y17.317 E0.2497
G1 X-6.100 Y17.435 E0.2596
G1 X-5.873 Y18.314 E0.3330
G1 X-5.846 Y18.433 E0.3428
G1 X-5.669 Y19.323 E0.4162
G1 X-5.648 Y19.444 E0.4261
G1 X-5.521 Y20.342 E0.4994
G1 X-5.508 Y20.464 E0.5093
G1 X-5.431 Y21.368 E0.5827
G1 X-5.425 Y21.490 E0.5926
G1 X-5.400 Y22.367 E0.6634
G1 X-5.399 Y22.428 E0.6684
G1 X-5.399 Y50.765 E2.9586
G1 X-7.953 Y53.319 E3.2505
G1 X-14.165 Y53.319 E3.7526
G1 X-16.719 Y50.765 E4.0445
G1 X-16.719 Y40.458 E4.8775
G1 X-16.728 Y40.285 E4.8916
G1 X-16.738 Y40.222 E4.8967
G1 X-16.753 Y40.160 E4.9019
G1 X-16.776 Y40.100 E4.9071
G1 X-16.804 Y40.042 E4.9122
G1 X-16.837 Y39.988 E4.9174
G1 X-16.876 Y39.937 E4.9225
G1 X-16.920 Y39.891 E4.9277
G1 X-16.968 Y39.849 E4.9329
G1 X-17.020 Y39.812 E4.9380
G1 X-17.076 Y39.781 E4.9432
G1 X-17.135 Y39.755 E4.9484
G1 X-17.195 Y39.736 E4.9535
G1 X-17.258 Y39.722 E4.9587
G1 X-17.321 Y39.715 E4.9639
G1 X-17.385 Y39.715 E4.9690
G1 X-17.449 Y39.720 E4.9742
G1 X-17.483 Y39.727 E4.9770
G1 X-18.554 Y40.066 E5.0677
G1 X-18.658 Y40.096 E5.0765
G1 X-19.559 Y40.332 E5.1518
G1 X-19.682 Y40.361 E5.1620
G1 X-20.604 Y40.546 E5.2380
G1 X-20.728 Y40.567 E5.2482
G1 X-21.659 Y40.699 E5.3242
G1 X-21.785 Y40.713 E5.3344
G1 X-22.722 Y40.790 E5.4104
G1 X-22.848 Y40.796 E5.4206
G1 X-23.788 Y40.819 E5.4966
G1 X-23.914 Y40.818 E5.5068
G1 X-24.854 Y40.786 E5.5828
G1 X-24.980 Y40.778 E5.5930
G1 X-25.916 Y40.692 E5.6690
G1 X-26.042 Y40.677 E5.6792
G1 X-26.971 Y40.536 E5.7552
G1 X-27.096 Y40.513 E5.7654
